icons/fabric-dark.svg

<svg width="256" height="256" viewBox="0 0 256 256" fill="none" xmlns="http://www.w3.org/2000/svg">
<g clip-path="url(#clip0_35_49)">
<path d="M196 0H60C26.8629 0 0 26.8629 0 60V196C0 229.137 26.8629 256 60 256H196C229.137 256 256 229.137 256 196V60C256 26.8629 229.137 0 196 0Z" fill="#282828"/>
<mask id="mask0_35_49" style="mask-type:luminance" maskUnits="userSpaceOnUse" x="37" y="30" width="183" height="197">
<path d="M220 30H37V227H220V30Z" fill="white"/>
</mask>
<g mask="url(#mask0_35_49)">
<path fill-rule="evenodd" clip-rule="evenodd" d="M44.5172 165.912L41.885 176.437C40.8823 179.81 39.5035 184.802 38.7514 189.255C37.3727 193.168 36.8713 197.486 37.2473 201.669C37.6234 205.852 38.8768 209.9 40.8823 213.543C42.8877 217.186 45.7706 220.154 49.0295 222.448C52.2884 224.742 56.0487 226.091 59.9343 226.631C63.5692 227.171 67.7055 227.171 72.2179 226.496L93.2756 223.393C98.5397 222.583 102.927 218.535 104.306 212.868L118.971 155.387L44.5172 165.912Z" fill="url(#paint0_linear_35_49)"/>
<path d="M65.0747 168.597C42.8891 172.375 38.2514 190.32 38.2514 190.32L59.5596 105.988L170.864 89.7966L155.697 149.166C154.945 152.405 152.439 154.834 149.305 155.238L148.678 155.373L64.3227 168.597H65.0747Z" fill="url(#paint1_linear_35_49)"/>
<path d="M65.0747 168.597C42.8891 172.375 38.2514 190.32 38.2514 190.32L59.5596 105.988L170.864 89.7966L155.697 149.166C154.945 152.405 152.439 154.834 149.305 155.238L148.678 155.373L64.3227 168.597H65.0747Z" fill="url(#paint2_linear_35_49)" fill-opacity="0.8"/>
<path d="M77.7309 114.891L200.943 95.326C202.321 95.0562 203.7 94.3814 204.828 93.4369C205.956 92.3576 206.708 91.0081 207.084 89.524L219.869 40.004C220.245 38.7896 220.245 37.4403 219.995 36.2259C219.744 35.0115 219.243 33.7971 218.365 32.8526C217.613 31.9081 216.611 31.0985 215.482 30.6937C214.354 30.2889 213.101 30.0191 211.973 30.2889L94.1508 48.7745C87.8837 49.854 82.1179 52.8225 77.4803 57.4102C72.8426 61.9978 69.4584 67.7999 67.7035 74.4115L50.7823 140.528C54.1666 127.17 56.2974 119.074 77.7309 114.891Z" fill="url(#paint3_linear_35_49)"/>
<path d="M77.7309 114.891L200.943 95.326C202.321 95.0562 203.7 94.3814 204.828 93.4369C205.956 92.3576 206.708 91.0081 207.084 89.524L219.869 40.004C220.245 38.7896 220.245 37.4403 219.995 36.2259C219.744 35.0115 219.243 33.7971 218.365 32.8526C217.613 31.9081 216.611 31.0985 215.482 30.6937C214.354 30.2889 213.101 30.0191 211.973 30.2889L94.1508 48.7745C87.8837 49.854 82.1179 52.8225 77.4803 57.4102C72.8426 61.9978 69.4584 67.7999 67.7035 74.4115L50.7823 140.528C54.1666 127.17 56.2974 119.074 77.7309 114.891Z" fill="url(#paint4_linear_35_49)"/>
<path d="M77.7309 114.891L200.943 95.326C202.321 95.0562 203.7 94.3814 204.828 93.4369C205.956 92.3576 206.708 91.0081 207.084 89.524L219.869 40.004C220.245 38.7896 220.245 37.4403 219.995 36.2259C219.744 35.0115 219.243 33.7971 218.365 32.8526C217.613 31.9081 216.611 31.0985 215.482 30.6937C214.354 30.2889 213.101 30.0191 211.973 30.2889L94.1508 48.7745C87.8837 49.854 82.1179 52.8225 77.4803 57.4102C72.8426 61.9978 69.4584 67.7999 67.7035 74.4115L50.7823 140.528C54.1666 127.17 56.2974 119.074 77.7309 114.891Z" fill="url(#paint5_linear_35_49)" fill-opacity="0.4"/>
<path d="M77.7343 114.872C59.9356 118.38 55.4233 124.587 52.5405 134.167L38.2514 190.434C38.2514 190.434 42.7637 172.623 64.824 168.71L148.803 155.487L149.43 155.351C150.934 155.082 152.313 154.407 153.441 153.328C154.569 152.248 155.321 150.764 155.823 149.28L168.357 100.435L77.7343 114.872Z" fill="url(#paint6_linear_35_49)"/>
<path d="M77.7343 114.872C59.9356 118.38 55.4233 124.587 52.5405 134.167L38.2514 190.434C38.2514 190.434 42.7637 172.623 64.824 168.71L148.803 155.487L149.43 155.351C150.934 155.082 152.313 154.407 153.441 153.328C154.569 152.248 155.321 150.764 155.823 149.28L168.357 100.435L77.7343 114.872Z" fill="url(#paint7_linear_35_49)" fill-opacity="0.2"/>
<path fill-rule="evenodd" clip-rule="evenodd" d="M64.8227 168.733C46.272 171.972 40.1302 185.195 38.7514 189.243C37.3727 193.156 36.8713 197.474 37.2473 201.656C37.6234 205.84 38.8768 209.887 40.8823 213.531C42.8877 217.174 45.7706 220.142 49.0295 222.436C52.2884 224.73 56.0487 226.079 59.9343 226.619C63.5692 227.158 67.7055 227.158 72.2179 226.484L93.2756 223.381C98.5397 222.571 102.927 218.523 104.306 212.856L117.592 160.503L64.8227 168.733Z" fill="url(#paint8_linear_35_49)"/>
</g>
</g>
<defs>
<linearGradient id="paint0_linear_35_49" x1="77.9808" y1="227.007" x2="77.9808" y2="155.395" gradientUnits="userSpaceOnUse">
<stop offset="0.056" stop-color="#2AAC94"/>
<stop offset="0.155" stop-color="#239C87"/>
<stop offset="0.372" stop-color="#177E71"/>
<stop offset="0.588" stop-color="#0E6961"/>
<stop offset="0.799" stop-color="#095D57"/>
<stop offset="1" stop-color="#085954"/>
</linearGradient>
<linearGradient id="paint1_linear_35_49" x1="147.06" y1="189.881" x2="77.6595" y2="119.749" gradientUnits="userSpaceOnUse">
<stop offset="0.042" stop-color="#ABE88E"/>
<stop offset="0.549" stop-color="#2AAA92"/>
<stop offset="0.906" stop-color="#117865"/>
</linearGradient>
<linearGradient id="paint2_linear_35_49" x1="3.12745" y1="168.087" x2="65.1535" y2="148.43" gradientUnits="userSpaceOnUse">
<stop stop-color="#6AD6F9"/>
<stop offset="1" stop-color="#6AD6F9" stop-opacity="0"/>
</linearGradient>
<linearGradient id="paint3_linear_35_49" x1="50.7926" y1="85.2433" x2="213.557" y2="85.2433" gradientUnits="userSpaceOnUse">
<stop offset="0.043" stop-color="#25FFD4"/>
<stop offset="0.874" stop-color="#55DDB9"/>
</linearGradient>
<linearGradient id="paint4_linear_35_49" x1="56.6266" y1="47.2792" x2="206.903" y2="112.107" gradientUnits="userSpaceOnUse">
<stop stop-color="#6AD6F9"/>
<stop offset="0.23" stop-color="#60E9D0"/>
<stop offset="0.651" stop-color="#6DE9BB"/>
<stop offset="0.994" stop-color="#ABE88E"/>
</linearGradient>
<linearGradient id="paint5_linear_35_49" x1="65.4169" y1="69.344" x2="145.651" y2="85.8367" gradientUnits="userSpaceOnUse">
<stop stop-color="white" stop-opacity="0"/>
<stop offset="0.459" stop-color="white"/>
<stop offset="1" stop-color="white" stop-opacity="0"/>
</linearGradient>
<linearGradient id="paint6_linear_35_49" x1="103.181" y1="148.419" x2="105.362" y2="88.2495" gradientUnits="userSpaceOnUse">
<stop offset="0.205" stop-color="#063D3B" stop-opacity="0"/>
<stop offset="0.586" stop-color="#063D3B" stop-opacity="0.237"/>
<stop offset="0.872" stop-color="#063D3B" stop-opacity="0.75"/>
</linearGradient>
<linearGradient id="paint7_linear_35_49" x1="33.4423" y1="131.298" x2="101.899" y2="143.259" gradientUnits="userSpaceOnUse">
<stop stop-color="white" stop-opacity="0"/>
<stop offset="0.459" stop-color="white"/>
<stop offset="1" stop-color="white" stop-opacity="0"/>
</linearGradient>
<linearGradient id="paint8_linear_35_49" x1="82.2125" y1="206.834" x2="66.9184" y2="137.314" gradientUnits="userSpaceOnUse">
<stop offset="0.064" stop-color="#063D3B" stop-opacity="0"/>
<stop offset="0.17" stop-color="#063D3B" stop-opacity="0.135"/>
<stop offset="0.562" stop-color="#063D3B" stop-opacity="0.599"/>
<stop offset="0.85" stop-color="#063D3B" stop-opacity="0.9"/>
<stop offset="1" stop-color="#063D3B"/>
</linearGradient>
<clipPath id="clip0_35_49">
<rect width="256" height="256" fill="white"/>
</clipPath>
</defs>
</svg>

<svg xmlns="http://www.w3.org/2000/svg" width="256" height="256" fill="none"><g clip-path="url(#clip0_35_49)"><path fill="#282828" d="M196 0H60C26.863 0 0 26.863 0 60v136c0 33.137 26.863 60 60 60h136c33.137 0 60-26.863 60-60V60c0-33.137-26.863-60-60-60"/><mask id="mask0_35_49" width="183" height="197" x="37" y="30" maskUnits="userSpaceOnUse" style="mask-type:luminance"><path fill="#fff" d="M220 30H37v197h183z"/></mask><g mask="url(#mask0_35_49)"><path fill="url(#paint0_linear_35_49)" fill-rule="evenodd" d="m44.517 165.912-2.632 10.525c-1.003 3.373-2.381 8.365-3.134 12.818-1.378 3.913-1.88 8.231-1.504 12.414a30.3 30.3 0 0 0 3.635 11.874c2.006 3.643 4.889 6.611 8.148 8.905s7.019 3.643 10.904 4.183c3.635.54 7.772.54 12.284-.135l21.058-3.103c5.264-.81 9.651-4.858 11.03-10.525l14.665-57.481z" clip-rule="evenodd"/><path fill="url(#paint1_linear_35_49)" d="M65.075 168.597C42.889 172.375 38.25 190.32 38.25 190.32l21.309-84.332 111.304-16.191-15.167 59.369c-.752 3.239-3.258 5.668-6.392 6.072l-.627.135-84.355 13.224z"/><path fill="url(#paint2_linear_35_49)" fill-opacity=".8" d="M65.075 168.597C42.889 172.375 38.25 190.32 38.25 190.32l21.309-84.332 111.304-16.191-15.167 59.369c-.752 3.239-3.258 5.668-6.392 6.072l-.627.135-84.355 13.224z"/><path fill="url(#paint3_linear_35_49)" d="m77.73 114.891 123.213-19.565c1.378-.27 2.757-.945 3.885-1.89 1.128-1.078 1.88-2.428 2.256-3.912l12.785-49.52c.376-1.214.376-2.564.126-3.778-.251-1.215-.752-2.429-1.63-3.373-.752-.945-1.754-1.755-2.883-2.16-1.128-.404-2.381-.674-3.509-.404L94.151 48.775c-6.267 1.079-12.033 4.047-16.67 8.635s-8.023 10.39-9.777 17.002l-16.922 66.116c3.385-13.358 5.515-21.454 26.949-25.637"/><path fill="url(#paint4_linear_35_49)" d="m77.73 114.891 123.213-19.565c1.378-.27 2.757-.945 3.885-1.89 1.128-1.078 1.88-2.428 2.256-3.912l12.785-49.52c.376-1.214.376-2.564.126-3.778-.251-1.215-.752-2.429-1.63-3.373-.752-.945-1.754-1.755-2.883-2.16-1.128-.404-2.381-.674-3.509-.404L94.151 48.775c-6.267 1.079-12.033 4.047-16.67 8.635s-8.023 10.39-9.777 17.002l-16.922 66.116c3.385-13.358 5.515-21.454 26.949-25.637"/><path fill="url(#paint5_linear_35_49)" fill-opacity=".4" d="m77.73 114.891 123.213-19.565c1.378-.27 2.757-.945 3.885-1.89 1.128-1.078 1.88-2.428 2.256-3.912l12.785-49.52c.376-1.214.376-2.564.126-3.778-.251-1.215-.752-2.429-1.63-3.373-.752-.945-1.754-1.755-2.883-2.16-1.128-.404-2.381-.674-3.509-.404L94.151 48.775c-6.267 1.079-12.033 4.047-16.67 8.635s-8.023 10.39-9.777 17.002l-16.922 66.116c3.385-13.358 5.515-21.454 26.949-25.637"/><path fill="url(#paint6_linear_35_49)" d="M77.734 114.872c-17.798 3.508-22.31 9.715-25.193 19.295l-14.29 56.267s4.513-17.811 26.573-21.724l83.979-13.223.627-.136a7.7 7.7 0 0 0 4.011-2.023c1.128-1.08 1.88-2.564 2.382-4.048l12.534-48.845z"/><path fill="url(#paint7_linear_35_49)" fill-opacity=".2" d="M77.734 114.872c-17.798 3.508-22.31 9.715-25.193 19.295l-14.29 56.267s4.513-17.811 26.573-21.724l83.979-13.223.627-.136a7.7 7.7 0 0 0 4.011-2.023c1.128-1.08 1.88-2.564 2.382-4.048l12.534-48.845z"/><path fill="url(#paint8_linear_35_49)" fill-rule="evenodd" d="M64.823 168.733c-18.551 3.239-24.693 16.462-26.072 20.51-1.378 3.913-1.88 8.231-1.504 12.413a30.3 30.3 0 0 0 3.635 11.875c2.006 3.643 4.889 6.611 8.148 8.905s7.019 3.643 10.904 4.183c3.635.539 7.772.539 12.284-.135l21.058-3.103c5.264-.81 9.651-4.858 11.03-10.525l13.286-52.353z" clip-rule="evenodd"/></g></g><defs><linearGradient id="paint0_linear_35_49" x1="77.981" x2="77.981" y1="227.007" y2="155.395" gradientUnits="userSpaceOnUse"><stop offset=".056" stop-color="#2AAC94"/><stop offset=".155" stop-color="#239C87"/><stop offset=".372" stop-color="#177E71"/><stop offset=".588" stop-color="#0E6961"/><stop offset=".799" stop-color="#095D57"/><stop offset="1" stop-color="#085954"/></linearGradient><linearGradient id="paint1_linear_35_49" x1="147.06" x2="77.659" y1="189.881" y2="119.749" gradientUnits="userSpaceOnUse"><stop offset=".042" stop-color="#ABE88E"/><stop offset=".549" stop-color="#2AAA92"/><stop offset=".906" stop-color="#117865"/></linearGradient><linearGradient id="paint2_linear_35_49" x1="3.127" x2="65.153" y1="168.087" y2="148.43" gradientUnits="userSpaceOnUse"><stop stop-color="#6AD6F9"/><stop offset="1" stop-color="#6AD6F9" stop-opacity="0"/></linearGradient><linearGradient id="paint3_linear_35_49" x1="50.793" x2="213.557" y1="85.243" y2="85.243" gradientUnits="userSpaceOnUse"><stop offset=".043" stop-color="#25FFD4"/><stop offset=".874" stop-color="#55DDB9"/></linearGradient><linearGradient id="paint4_linear_35_49" x1="56.627" x2="206.903" y1="47.279" y2="112.107" gradientUnits="userSpaceOnUse"><stop stop-color="#6AD6F9"/><stop offset=".23" stop-color="#60E9D0"/><stop offset=".651" stop-color="#6DE9BB"/><stop offset=".994" stop-color="#ABE88E"/></linearGradient><linearGradient id="paint5_linear_35_49" x1="65.417" x2="145.651" y1="69.344" y2="85.837" gradientUnits="userSpaceOnUse"><stop stop-color="#fff" stop-opacity="0"/><stop offset=".459" stop-color="#fff"/><stop offset="1" stop-color="#fff" stop-opacity="0"/></linearGradient><linearGradient id="paint6_linear_35_49" x1="103.181" x2="105.362" y1="148.419" y2="88.249" gradientUnits="userSpaceOnUse"><stop offset=".205" stop-color="#063D3B" stop-opacity="0"/><stop offset=".586" stop-color="#063D3B" stop-opacity=".237"/><stop offset=".872" stop-color="#063D3B" stop-opacity=".75"/></linearGradient><linearGradient id="paint7_linear_35_49" x1="33.442" x2="101.899" y1="131.298" y2="143.259" gradientUnits="userSpaceOnUse"><stop stop-color="#fff" stop-opacity="0"/><stop offset=".459" stop-color="#fff"/><stop offset="1" stop-color="#fff" stop-opacity="0"/></linearGradient><linearGradient id="paint8_linear_35_49" x1="82.213" x2="66.918" y1="206.834" y2="137.314" gradientUnits="userSpaceOnUse"><stop offset=".064" stop-color="#063D3B" stop-opacity="0"/><stop offset=".17" stop-color="#063D3B" stop-opacity=".135"/><stop offset=".562" stop-color="#063D3B" stop-opacity=".599"/><stop offset=".85" stop-color="#063D3B" stop-opacity=".9"/><stop offset="1" stop-color="#063D3B"/></linearGradient><clipPath id="clip0_35_49"><path fill="#fff" d="M0 0h256v256H0z"/></clipPath></defs></svg>
